X:7633
T:Top of the Cork Road
T:Father O'Flynn
O:england
M:6/8
L:1/8
S:Trad Irish
R:Jig
K:D
A|dAF DFA | ded cBA|  d2d efg |fdf ecA| dAF DFA | ded cBA|  d2d efg | fd
c d2:|
e |f2f fga |ecA ABc|dcd Bed |cAA A2 =c |B2B BAG | AFD DFA | dcd efg| fd
c
d2 :|


